X: 30317
T: Old Man Winter
R: jig
M: 6/8
K: Aminor
E|:"Am"ABc BGE|FED E3|A3 GAB|cde de^f|
"Em"g2 e e2 d|e3 edB|"F"ABc dBG|1 A3 A2 E:|2 "Em"A3 Ace||
|:"Am"a2A BAB|cBc A2 g|"D"^f2d d2^c|d3 de^f|
"Am"g2A BAB|GBd e2d|"D"c2A A2G|1 "G"A3 Ace:|2 "Em"A3 A2||

